static/images/logos/trusted-by/gm.svg

<svg xmlns="http://www.w3.org/2000/svg" width="48" height="48" viewBox="0 0 48 48" fill="none">
    <g clip-path="url(#clip0_1895_40428)">
        <path d="M0 -0.0859375H48V47.8699H0V-0.0859375Z" fill="#ADADB0"/>
        <path d="M12.0059 32.0318H36.0201V35.9251H12.0059V32.0318ZM23.9128 11.9516H27.9703L29.9555 25.1349L31.9851 11.9516H35.9982V29.9642H33.3239V16.399L31.0701 29.9642H28.7593L26.5847 16.399V29.9377H23.9128V11.9516ZM18.3519 17.6711H21.094V16.3988C21.094 15.153 21.094 11.5781 16.5069 11.5781C12.0213 11.5781 12.0213 15.6606 12.0213 16.3988V25.7609C12.0213 28.4942 13.0217 30.285 15.6143 30.3024C17.1469 30.3048 18.2155 29.3466 18.4421 28.982V29.9377L21.094 29.964V20.2043H16.7797V22.3707H18.3519V25.2228C18.3519 26.6686 17.8989 27.6526 16.5509 27.6526C15.2007 27.6526 14.772 26.6047 14.772 25.2226V16.3988C14.772 15.6825 14.772 14.0479 16.5509 14.0479C18.3519 14.0479 18.3519 15.709 18.3519 16.3988V17.6711Z" fill="#19191C"/>
    </g>
    <defs>
        <clipPath id="clip0_1895_40428">
            <rect width="48" height="48" fill="white"/>
        </clipPath>
    </defs>
</svg>

<svg xmlns="http://www.w3.org/2000/svg" width="48" height="48" fill="none"><g clip-path="url(#a)"><path fill="#ADADB0" d="M0-.086h48V47.87H0V-.086Z"/><path fill="#19191C" d="M12.006 32.032H36.02v3.893H12.006v-3.893Zm11.907-20.08h4.057l1.986 13.183 2.03-13.183h4.012v18.012h-2.674V16.4L31.07 29.964h-2.31L26.584 16.4v13.539h-2.672V11.952Zm-5.561 5.72h2.742v-1.273c0-1.246 0-4.82-4.587-4.82-4.486 0-4.486 4.082-4.486 4.82v9.362c0 2.733 1 4.524 3.593 4.541 1.533.003 2.601-.955 2.828-1.32v.956l2.652.026v-9.76H16.78v2.167h1.572v2.852c0 1.446-.453 2.43-1.801 2.43-1.35 0-1.779-1.048-1.779-2.43v-8.824c0-.717 0-2.351 1.779-2.351 1.8 0 1.8 1.661 1.8 2.35v1.273Z"/></g><defs><clipPath id="a"><path fill="#fff" d="M0 0h48v48H0z"/></clipPath></defs></svg>
